X: 65
T:Duke Of Perth
% Nottingham Music Database
S:via PR
M:4/4
L:1/4
K:G
|:d/2B/2|"G"G/2A/2B/2c/2 dB|"G"gB dB|"G"gB "Em"dB|"Am"aA "D7"AB/2A/2|
"G"G/2A/2B/2c/2 dB|"G"gB "E7"dB|"Am"cA "D7"d3/2c/2|"G"BG G::
f|"Em"g3/2a/2 ge|"Am"a3/2b/2 af|"Em"g3/2a/2 ge|"Em"be "B7"ef|"Em"g3/2a/2 ge|\
"Am"a3/2b/2 af|"G"gd "D7"ed/2c/2|"G"BG G:|


